X: 23012
T: Last Mile, The
R: reel
M: 4/4
K: Adorian
eA~A2 gAeA|~A2g2 edde|eaae d2de|gedg edBd|
eA~A2 gAeA|~A2g2 edde|a2ge gedg|edBd eAA2:|
egge gaeg|gega gee2|fddg ddad|dgdd fdd2|
egge gaeg|gega ge~e2|a2ge gedg|edBd eAA2:|

